X: 36968
T: Shuffle And Cut
R: slip jig
M: 9/8
K: Dmajor
|:dBG FAF EGE|=cEE E2B AFD|dBG FAF EGE|AFD D2B AFD:|
|:faf ege BdB|=cEE E2B AFD|faf ege BdB|AD D2B AFD:|
|:G2e F2d E2D|=cEE E2B AFD|G2e F2d E2B|AFD D2B AFD:|

